X:40
T:Fairy Like
C:Oliver Schoer
R:waltz
M:3/4
L:1/8
K:G
DGB |: dd Bd ec | dd Bd cA | BB GB AF | GBG D3 |
dd Bd ec | dd Bd cA | BB GB AF |1 [G,G]3D GB :|2 [G,G]3 B dg |:
gf af d2 | cB dB G2 | gf af dc | c2B d2B | GF EF Ge
|1 dB GD Ec | B2 BA GB | [AD]4 dg :|2 db ag fe | d2 ec AF | [G,G]3 D GB ||
